images/about3.svg

<svg width="40" height="40" viewBox="0 0 40 40" fill="none" xmlns="http://www.w3.org/2000/svg">
<circle cx="20" cy="20" r="20" fill="#F0F5FF"/>
<path d="M28.4001 28.2801V25.2801C28.4001 24.4401 28.2801 23.6001 27.8001 22.7601C27.3201 21.9201 26.7201 21.2001 25.8801 20.7201C25.0401 20.1201 23.2401 20.0001 22.4001 20.0001L20.4801 22.0401L21.2001 23.6001V27.2001L20.0001 28.5201L18.8001 27.2001V23.6001L19.6401 22.0401L17.6001 20.0001C16.6401 20.0001 14.8401 20.1201 14.0001 20.7201C13.1601 21.2001 12.6801 21.9201 12.2001 22.7601C11.7201 23.6001 11.6001 24.3201 11.6001 25.2801V28.2801C11.6001 28.2801 14.7201 29.6001 20.0001 29.6001C25.2801 29.6001 28.4001 28.2801 28.4001 28.2801ZM20.0001 10.5201C17.7201 10.5201 16.4001 12.6801 16.7601 15.0801C17.1201 17.4801 18.3201 19.1601 20.0001 19.1601C21.6801 19.1601 22.8801 17.4801 23.2401 15.0801C23.6001 12.5601 22.2801 10.5201 20.0001 10.5201Z" fill="#BDD0EA"/>
</svg>

<svg width="40" height="40" fill="none" xmlns="http://www.w3.org/2000/svg"><circle cx="20" cy="20" r="20" fill="#F0F5FF"/><path d="M28.4 28.28v-3c0-.84-.12-1.68-.6-2.52-.48-.84-1.08-1.56-1.92-2.04-.84-.6-2.64-.72-3.48-.72l-1.92 2.04.72 1.56v3.6L20 28.52l-1.2-1.32v-3.6l.84-1.56L17.6 20c-.96 0-2.76.12-3.6.72-.84.48-1.32 1.2-1.8 2.04-.48.84-.6 1.56-.6 2.52v3s3.12 1.32 8.4 1.32 8.4-1.32 8.4-1.32zM20 10.52c-2.28 0-3.6 2.16-3.24 4.56.36 2.4 1.56 4.08 3.24 4.08 1.68 0 2.88-1.68 3.24-4.08.36-2.52-.96-4.56-3.24-4.56z" fill="#BDD0EA"/></svg>
